public/theme/icons/linkedin-icon.svg

<svg width="68" height="68" viewBox="0 0 68 68" fill="none" xmlns="http://www.w3.org/2000/svg">
<circle cx="34" cy="34" r="34" fill="#0A66C2"/>
<rect x="13.0469" y="13.8372" width="41.5116" height="39.9302" fill="white"/>
<path d="M51.8181 51.3971H44.3883V39.8763C44.3883 37.129 44.3387 33.5925 40.524 33.5925C36.6543 33.5925 36.0622 36.5857 36.0622 39.6763V51.3963H28.6324V27.7049H35.765V30.9426H35.8649C36.5787 29.7341 37.6101 28.74 38.8494 28.0661C40.0887 27.3921 41.4894 27.0636 42.9023 27.1156C50.4327 27.1156 51.8212 32.02 51.8212 38.4004L51.8181 51.3971ZM20.2491 24.4664C19.3963 24.4666 18.5627 24.2163 17.8535 23.7474C17.1444 23.2784 16.5917 22.6117 16.2652 21.8317C15.9387 21.0517 15.8532 20.1933 16.0194 19.3651C16.1856 18.537 16.5961 17.7762 17.199 17.1791C17.8019 16.5819 18.5701 16.1752 19.4064 16.0103C20.2428 15.8454 21.1097 15.9298 21.8976 16.2528C22.6855 16.5758 23.359 17.1228 23.8329 17.8248C24.3068 18.5268 24.5598 19.3521 24.5599 20.1965C24.56 20.7571 24.4486 21.3123 24.232 21.8303C24.0154 22.3483 23.698 22.819 23.2977 23.2155C22.8974 23.612 22.4221 23.9265 21.899 24.1411C21.3759 24.3558 20.8153 24.4663 20.2491 24.4664ZM23.964 51.3971H16.5264V27.7049H23.964V51.3971ZM55.5221 9.0964H12.793C11.8231 9.08556 10.8886 9.45641 10.1948 10.1275C9.50095 10.7985 9.10461 11.7148 9.09277 12.6751V55.1589C9.1042 56.1197 9.50031 57.0366 10.1941 57.7084C10.8879 58.3801 11.8227 58.7517 12.793 58.7415H55.5221C56.4944 58.7535 57.4317 58.383 58.1283 57.7113C58.8248 57.0396 59.2236 56.1216 59.237 55.1589V12.672C59.2232 11.7099 58.8241 10.7925 58.1276 10.1215C57.431 9.45043 56.4939 9.08064 55.5221 9.09333" fill="#0A66C2"/>
</svg>

<svg xmlns="http://www.w3.org/2000/svg" width="68" height="68" fill="none">
    <circle cx="34" cy="34" r="34" fill="#0A66C2"/>
    <path fill="#fff" d="M13.047 13.837h41.512v39.93H13.047z"/>
    <path fill="#0A66C2"
          d="M51.818 51.397h-7.43v-11.52c0-2.748-.05-6.285-3.864-6.285-3.87 0-4.462 2.994-4.462 6.084v11.72h-7.43V27.705h7.133v3.238h.1a7.8 7.8 0 0 1 2.984-2.877 7.9 7.9 0 0 1 4.053-.95c7.53 0 8.92 4.904 8.92 11.284zM20.25 24.467c-.853 0-1.686-.25-2.395-.72a4.3 4.3 0 0 1-1.589-1.915 4.23 4.23 0 0 1-.246-2.467 4.26 4.26 0 0 1 1.18-2.186 4.33 4.33 0 0 1 2.207-1.169 4.35 4.35 0 0 1 2.492.243c.788.323 1.461.87 1.935 1.572a4.24 4.24 0 0 1-.535 5.39 4.348 4.348 0 0 1-3.049 1.25m3.715 26.93h-7.438V27.705h7.438zm31.558-42.3H12.793c-.97-.011-1.904.36-2.598 1.03a3.6 3.6 0 0 0-1.102 2.548V55.16c.011.96.407 1.878 1.101 2.55a3.68 3.68 0 0 0 2.599 1.032h42.73a3.7 3.7 0 0 0 2.605-1.03 3.62 3.62 0 0 0 1.109-2.552V12.672a3.61 3.61 0 0 0-1.11-2.55 3.69 3.69 0 0 0-2.605-1.029"/>
</svg>
